X:69
T:Tom Ward's Downfall
R:reel
Z:Transcribed by Dave Marshall
M:C|
K:G
|: B~G3 GEDG | EDEG A2GE | DEGA ~B3d | e~d3 Bdgd |
B~G3 GEDG | EDEG ABGE | DEGA ~B3d | egdc BGG2 :|
|:d~g3 gedg | eaag a2ga | b~g3 gbaf | gedc BGGB |
d~g3 gedg | eaag a2ga | bgag egfa | gedc BGG2 :|
